!!! OTL: Berkowitz413
!!! Chapter: 1
!!! Section: IV
!!! Page: 103
!!! Mode: 
!!! Encoder: DJB
**kern
*staff1
*I"Piano
=1-
*clefC4
*k[]
*C:
*M3/4
4r
4r
4G/
=2
2c\
4B\
=3
4A\
4B\
4c\
=4
2G/
[4E/
=5
4E/]
4A\
4G/
=6
2F/
4E/
=7
4D/
4E/
4F/
=8
2E/
4C/
=9
2c\
4B-\
=10
4A-\
4B-\
4c\
=11
2G/
8E/L
8F/J
=12
4G/
4A\
4B\
=13
4c\
4d\
4e\
=14
4d\
4A\
4B\
=15
!!linebreak:original
4c\
2r
==
*-
